build/img/my-comfort-plus-wrong-2.svg

<svg width="159" height="40" viewBox="0 0 159 40" fill="none" xmlns="http://www.w3.org/2000/svg">
<g clip-path="url(#clip0)">
<path d="M46.8813 0.65654C49.5458 0.61181 52.1929 1.09329 54.6694 2.07314C57.1459 3.05299 59.4026 4.51178 61.3092 6.36514C63.1497 8.15354 64.6226 10.2817 65.6456 12.6307C66.6992 15.0602 67.2302 17.6823 67.2043 20.3283C67.2326 22.9746 66.7015 25.5972 65.6456 28.026C64.6236 30.3841 63.1444 32.5185 61.2928 34.3069C59.4411 36.0954 57.2533 37.5028 54.8546 38.4487C52.3254 39.5065 49.6045 40.0346 46.8613 40.0002H31.7539V0.65654H46.8813ZM51.957 31.6262C53.4075 31.0391 54.7156 30.1508 55.7938 29.0205C56.8602 27.8624 57.6945 26.5122 58.2518 25.0424C58.8516 23.5226 59.1502 21.9015 59.131 20.2687C59.1504 18.6229 58.8519 16.9888 58.2518 15.4551C57.6876 14.0185 56.8534 12.7021 55.7938 11.5765C54.7022 10.4621 53.3976 9.57613 51.957 8.97081C50.3472 8.30818 48.6233 7.96364 46.8813 7.95639H39.8272V32.6207H46.8813C48.6257 32.6608 50.358 32.3214 51.957 31.6262Z" fill="#231F20"/>
<path d="M82.5509 4.53504V14.1621H80.9922V3.1228H83.61L86.4476 12.3322L89.2853 3.1228H91.9031V14.1621H90.3244V4.53504L87.267 14.1621H85.6083L82.5509 4.53504Z" fill="#231F20"/>
<path d="M94.1413 8.63244C94.0628 7.90529 94.1389 7.16984 94.3647 6.4739C94.5906 5.77796 94.961 5.13712 95.452 4.59306C95.943 4.049 96.5436 3.61389 97.2146 3.31604C97.8857 3.01819 98.6122 2.86426 99.3469 2.86426C100.082 2.86426 100.808 3.01819 101.479 3.31604C102.15 3.61389 102.751 4.049 103.242 4.59306C103.733 5.13712 104.103 5.77796 104.329 6.4739C104.555 7.16984 104.631 7.90529 104.553 8.63244C104.631 9.3596 104.555 10.0951 104.329 10.791C104.103 11.4869 103.733 12.1278 103.242 12.6718C102.751 13.2159 102.15 13.651 101.479 13.9488C100.808 14.2467 100.082 14.4006 99.3469 14.4006C98.6122 14.4006 97.8857 14.2467 97.2146 13.9488C96.5436 13.651 95.943 13.2159 95.452 12.6718C94.961 12.1278 94.5906 11.4869 94.3647 10.791C94.1389 10.0951 94.0628 9.3596 94.1413 8.63244ZM102.974 8.63244C102.974 5.78809 101.375 4.23662 99.3569 4.23662C97.3386 4.23662 95.74 5.78809 95.74 8.63244C95.74 11.4768 97.3386 13.068 99.3569 13.068C101.375 13.068 102.974 11.4967 102.974 8.63244Z" fill="#231F20"/>
<path d="M108.369 14.1619H106.811V3.12257H108.369V11.9341L114.364 3.16235H115.903V14.1619H114.344V5.3901L108.369 14.1619ZM111.387 2.50596C109.628 2.50596 108.769 1.71034 108.609 0.676025H109.788C109.788 1.25285 110.447 1.5711 111.407 1.5711C112.366 1.5711 112.925 1.23296 113.045 0.676025H114.224C114.104 1.71034 113.205 2.50596 111.387 2.50596Z" fill="#231F20"/>
<path d="M82.5509 25.1416V30.1739H80.9922V19.1147H82.5509V23.8089H83.67L87.4069 19.1147H89.2853L85.0089 24.346L89.4452 30.1739H87.5867L83.7099 25.1416H82.5509Z" fill="#231F20"/>
<path d="M89.9245 24.6445C89.846 23.9174 89.9221 23.1819 90.148 22.486C90.3738 21.79 90.7442 21.1492 91.2352 20.6051C91.7262 20.0611 92.3268 19.626 92.9978 19.3281C93.6689 19.0303 94.3954 18.8763 95.1301 18.8763C95.8649 18.8763 96.5914 19.0303 97.2625 19.3281C97.9335 19.626 98.5341 20.0611 99.0251 20.6051C99.5161 21.1492 99.8865 21.79 100.112 22.486C100.338 23.1819 100.414 23.9174 100.336 24.6445C100.414 25.3717 100.338 26.1071 100.112 26.8031C99.8865 27.499 99.5161 28.1399 99.0251 28.6839C98.5341 29.228 97.9335 29.6631 97.2625 29.9609C96.5914 30.2588 95.8649 30.4127 95.1301 30.4127C94.3954 30.4127 93.6689 30.2588 92.9978 29.9609C92.3268 29.6631 91.7262 29.228 91.2352 28.6839C90.7442 28.1399 90.3738 27.499 90.148 26.8031C89.9221 26.1071 89.846 25.3717 89.9245 24.6445ZM98.7371 24.6445C98.7371 21.7803 97.1584 20.2288 95.1401 20.2288C93.1218 20.2288 91.5232 21.7803 91.5232 24.6445C91.5232 27.5088 93.1018 29.0602 95.1401 29.0602C97.1784 29.0602 98.7371 27.4889 98.7371 24.6445Z" fill="#231F20"/>
<path d="M104.072 20.5469V30.1739H102.514V19.1147H105.131L107.969 28.3241L110.787 19.1147H113.405V30.1739H111.846V20.5469L108.788 30.1739H107.13L104.072 20.5469Z" fill="#231F20"/>
<path d="M126.934 24.6447C126.938 25.2783 126.811 25.906 126.56 26.4886C126.31 27.0712 125.942 27.5963 125.479 28.0311C125.016 28.4658 124.468 28.8011 123.869 29.0158C123.27 29.2305 122.633 29.3202 121.998 29.2792V30.5721H120.419V29.2792C119.168 29.2792 117.969 28.7847 117.084 27.9043C116.2 27.024 115.703 25.83 115.703 24.5851C115.703 23.3401 116.2 22.1461 117.084 21.2658C117.969 20.3854 119.168 19.8909 120.419 19.8909V18.5184H121.998V19.8909C122.642 19.855 123.287 19.9522 123.891 20.1763C124.496 20.4005 125.047 20.7467 125.511 21.1931C125.974 21.6396 126.34 22.1768 126.585 22.7708C126.83 23.3648 126.949 24.0028 126.934 24.6447ZM117.062 24.6447C117.048 25.0891 117.126 25.5316 117.289 25.9453C117.452 26.3591 117.698 26.7355 118.012 27.0517C118.326 27.3679 118.702 27.6173 119.115 27.7848C119.529 27.9523 119.973 28.0344 120.419 28.0261V21.1838C119.968 21.1723 119.52 21.2535 119.102 21.4224C118.684 21.5914 118.306 21.8443 117.991 22.1654C117.676 22.4866 117.431 22.869 117.271 23.2887C117.111 23.7085 117.04 24.1566 117.062 24.605V24.6447ZM125.335 24.605C125.354 24.159 125.282 23.7139 125.122 23.2968C124.962 22.8797 124.719 22.4995 124.406 22.1792C124.094 21.859 123.719 21.6056 123.305 21.4344C122.891 21.2632 122.446 21.178 121.998 21.1838V27.9864C122.444 27.9948 122.886 27.9126 123.299 27.7449C123.712 27.5771 124.086 27.3274 124.398 27.0109C124.71 26.6944 124.955 26.3178 125.116 25.9041C125.277 25.4904 125.351 25.0483 125.335 24.605Z" fill="#231F20"/>
<path d="M128.372 24.6445C128.293 23.9174 128.369 23.1819 128.595 22.486C128.821 21.79 129.192 21.1492 129.683 20.6051C130.174 20.0611 130.774 19.626 131.445 19.3281C132.116 19.0303 132.843 18.8763 133.577 18.8763C134.312 18.8763 135.039 19.0303 135.71 19.3281C136.381 19.626 136.981 20.0611 137.472 20.6051C137.963 21.1492 138.334 21.79 138.56 22.486C138.785 23.1819 138.862 23.9174 138.783 24.6445C138.862 25.3717 138.785 26.1071 138.56 26.8031C138.334 27.499 137.963 28.1399 137.472 28.6839C136.981 29.228 136.381 29.6631 135.71 29.9609C135.039 30.2588 134.312 30.4127 133.577 30.4127C132.843 30.4127 132.116 30.2588 131.445 29.9609C130.774 29.6631 130.174 29.228 129.683 28.6839C129.192 28.1399 128.821 27.499 128.595 26.8031C128.369 26.1071 128.293 25.3717 128.372 24.6445ZM137.204 24.6445C137.204 21.7803 135.606 20.2288 133.587 20.2288C131.569 20.2288 129.891 21.8797 129.891 24.6445C129.891 27.4093 131.489 29.0602 133.507 29.0602C135.526 29.0602 137.124 27.4889 137.124 24.6445" fill="#231F20"/>
<path d="M149.136 22.4564C149.136 25.2013 147.238 25.798 144.52 25.798H142.522V30.1739H140.963V19.1147H144.44C147.158 19.1147 149.056 19.7314 149.056 22.4564H149.136ZM142.522 24.4454H144.52C146.139 24.4454 147.417 24.2664 147.417 22.4564C147.417 20.6463 146.139 20.4673 144.52 20.4673H142.522V24.4454Z" fill="#231F20"/>
<path d="M149.355 20.4673V19.1147H158.148V20.4673H154.531V30.1739H152.972V20.4673H149.355Z" fill="#231F20"/>
<path d="M159 35H82V40H159V35Z" fill="url(#paint0_linear)"/>
</g>
<defs>
<linearGradient id="paint0_linear" x1="82.2303" y1="37.7081" x2="159.001" y2="37.7081" gradientUnits="userSpaceOnUse">
<stop stop-color="#A0B1FF"/>
<stop offset="1" stop-color="#FFDCD6"/>
</linearGradient>
<clipPath id="clip0">
<rect width="159" height="40" fill="white"/>
</clipPath>
</defs>
</svg>

<svg width="159" height="40" viewBox="0 0 159 40" fill="none" xmlns="http://www.w3.org/2000/svg"><g clip-path="url(#clip0)"><path d="M46.881.657a20.247 20.247 0 017.788 1.416 20.173 20.173 0 016.64 4.292 19.71 19.71 0 014.337 6.266 18.881 18.881 0 011.558 7.697 18.801 18.801 0 01-1.558 7.698 19.531 19.531 0 01-4.353 6.28 19.634 19.634 0 01-6.438 4.143A20.066 20.066 0 0146.86 40H31.754V.657H46.88zm5.076 30.97a11.012 11.012 0 003.837-2.607 12.323 12.323 0 002.458-3.978c.6-1.52.898-3.14.879-4.773.02-1.646-.28-3.28-.88-4.814a12.126 12.126 0 00-2.457-3.879 11.733 11.733 0 00-3.837-2.605 13.483 13.483 0 00-5.076-1.015h-7.054v24.665h7.054c1.745.04 3.477-.3 5.076-.995zM82.55 4.535v9.627h-1.558V3.122h2.618l2.838 9.21 2.837-9.21h2.618v11.04h-1.579V4.535l-3.057 9.627h-1.659l-3.057-9.627zm11.591 4.097a5.189 5.189 0 011.311-4.039 5.235 5.235 0 013.895-1.729 5.254 5.254 0 013.895 1.73 5.207 5.207 0 011.311 4.038 5.194 5.194 0 01-1.311 4.04 5.235 5.235 0 01-3.895 1.729 5.256 5.256 0 01-3.895-1.73 5.206 5.206 0 01-1.31-4.039zm8.833 0c0-2.844-1.599-4.395-3.617-4.395S95.74 5.788 95.74 8.632c0 2.845 1.599 4.436 3.617 4.436s3.617-1.571 3.617-4.436zm5.395 5.53h-1.558V3.122h1.558v8.812l5.995-8.772h1.539v11h-1.559V5.39l-5.975 8.772zm3.018-11.656c-1.759 0-2.618-.796-2.778-1.83h1.179c0 .577.659.895 1.619.895.959 0 1.518-.338 1.638-.895h1.179c-.12 1.034-1.019 1.83-2.837 1.83zM82.55 25.142v5.032h-1.558v-11.06h1.559v4.695h1.119l3.737-4.694h1.878l-4.276 5.231 4.436 5.828h-1.858l-3.877-5.032h-1.16zm7.374-.497a5.187 5.187 0 011.311-4.04 5.236 5.236 0 013.895-1.729 5.258 5.258 0 013.895 1.73 5.2 5.2 0 011.311 4.038 5.194 5.194 0 01-1.31 4.04 5.234 5.234 0 01-3.896 1.729 5.256 5.256 0 01-3.895-1.73 5.205 5.205 0 01-1.31-4.038zm8.813 0c0-2.865-1.579-4.416-3.597-4.416s-3.617 1.551-3.617 4.416c0 2.864 1.579 4.415 3.617 4.415 2.038 0 3.597-1.571 3.597-4.415zm5.335-4.098v9.627h-1.558v-11.06h2.617l2.838 9.21 2.818-9.21h2.618v11.06h-1.559v-9.627l-3.058 9.627h-1.658l-3.058-9.627zm22.862 4.098a4.61 4.61 0 01-3.065 4.371 4.657 4.657 0 01-1.871.263v1.293h-1.579V29.28a4.728 4.728 0 01-3.335-1.375 4.685 4.685 0 01-1.381-3.319c0-1.245.497-2.439 1.381-3.32a4.728 4.728 0 013.335-1.374v-1.373h1.579v1.373a4.693 4.693 0 013.513 1.302c.463.447.829.984 1.074 1.578a4.63 4.63 0 01.349 1.874zm-9.872 0a3.268 3.268 0 00.95 2.407 3.306 3.306 0 002.407.974v-6.842a3.29 3.29 0 00-2.428.981 3.266 3.266 0 00-.929 2.44v.04zm8.273-.04a3.264 3.264 0 00-.929-2.426 3.296 3.296 0 00-2.408-.995v6.802a3.291 3.291 0 002.4-.975 3.264 3.264 0 00.937-2.406zm3.037.04a5.177 5.177 0 011.311-4.04 5.234 5.234 0 013.894-1.729 5.234 5.234 0 014.983 3.61c.225.696.302 1.431.223 2.159a5.194 5.194 0 01-1.311 4.039 5.231 5.231 0 01-3.895 1.729 5.257 5.257 0 01-3.894-1.73 5.178 5.178 0 01-1.311-4.04zm8.832 0c0-2.865-1.598-4.416-3.617-4.416-2.018 0-3.696 1.65-3.696 4.416 0 2.764 1.598 4.415 3.616 4.415 2.019 0 3.617-1.571 3.617-4.415m12.012-2.189c0 2.745-1.898 3.342-4.616 3.342h-1.998v4.376h-1.559v-11.06h3.477c2.718 0 4.616.617 4.616 3.342h.08zm-6.614 1.99h1.998c1.619 0 2.897-.18 2.897-1.99s-1.278-1.989-2.897-1.989h-1.998v3.978zm6.833-3.979v-1.352h8.793v1.352h-3.617v9.707h-1.559v-9.707h-3.617z" fill="#231F20"/><path d="M159 35H82v5h77v-5z" fill="url(#paint0_linear)"/></g><defs><linearGradient id="paint0_linear" x1="82.23" y1="37.708" x2="159.001" y2="37.708" gradientUnits="userSpaceOnUse"><stop stop-color="#A0B1FF"/><stop offset="1" stop-color="#FFDCD6"/></linearGradient><clipPath id="clip0"><path fill="#fff" d="M0 0h159v40H0z"/></clipPath></defs></svg>
